src/pos-icons/sort.svg

<svg height="24" viewBox="0 0 24 24" width="24" xmlns="http://www.w3.org/2000/svg"><path d="m18 21-4-4h3v-10h-3l4-4 4 4h-3v10h3m-20 2v-2h10v2m-10-6v-2h7v2m-7-6v-2h4v2z"/></svg>

<?xml version="1.0" encoding="UTF-8"?><!DOCTYPE svg PUBLIC "-//W3C//DTD SVG 1.1//EN" "http://www.w3.org/Graphics/SVG/1.1/DTD/svg11.dtd"><svg xmlns="http://www.w3.org/2000/svg" xmlns:xlink="http://www.w3.org/1999/xlink" version="1.1" id="mdi-sort" width="24" height="24" viewBox="0 0 24 24"><path d="M18 21L14 17H17V7H14L18 3L22 7H19V17H22M2 19V17H12V19M2 13V11H9V13M2 7V5H6V7H2Z" /></svg>
